src/24/panel/clementine-panel.svg

<svg xmlns="http://www.w3.org/2000/svg" width="24" height="24" version="1.1">
 <defs>
  <style id="current-color-scheme" type="text/css">
   .ColorScheme-Text { color:#dfdfdf; } .ColorScheme-Highlight { color:#4285f4; }
  </style>
 </defs>
 <path d="M 7.8497138,4.0005457 C 4.9271455,4.1298338 1.2392715,11.017726 7.1521446,16.879331 13.150103,22.824513 20.200817,18.978997 19.995624,15.990532 A 8.5037006,8.5012098 0 0 1 14.504953,18.000584 8.5037006,8.5012098 0 0 1 6.0012532,9.4993751 8.5037006,8.5012098 0 0 1 8.0255716,4.0083593 c -0.058336,-0.00297 -0.1168109,-0.010426 -0.1758578,-0.00781 z" style="fill:currentColor" class="ColorScheme-Text"/>
 <path d="m 8.5805006,4.1294703 c -1.2879993,1.4196552 -2.0790297,3.298512 -2.0790297,5.3699048 0,4.4248299 3.5773561,8.0011379 8.0034821,8.0011379 2.06802,0 3.944534,-0.787391 5.363663,-2.070606 C 19.746581,15.134516 19.544147,14.855438 19.243343,14.60557 18.04082,13.605128 15.82112,12.887848 13.50061,10.587421 11.052145,8.1599751 10.35452,5.8590851 9.3288732,4.6725163 9.1027601,4.4109538 8.8492234,4.2377372 8.5805006,4.1294703 Z" style="opacity:0.3;fill:currentColor" class="ColorScheme-Text"/>
</svg>

<svg xmlns="http://www.w3.org/2000/svg" width="24" height="24"><defs><style id="current-color-scheme" type="text/css">.ColorScheme-Text{color:#d3dae3}</style></defs><path d="M7.85 4c-2.923.13-6.61 7.018-.698 12.88 5.998 5.945 13.049 2.099 12.844-.89A8.504 8.501 0 0 1 14.505 18a8.504 8.501 0 0 1-8.504-8.5 8.504 8.501 0 0 1 2.025-5.492c-.059-.003-.117-.01-.176-.007z" class="ColorScheme-Text" fill="currentColor"/><path d="M8.58 4.13A7.995 7.995 0 0 0 14.505 17.5a7.967 7.967 0 0 0 5.365-2.071 2.126 2.126 0 0 0-.626-.824c-1.202-1-3.422-1.718-5.742-4.019-2.449-2.427-3.146-4.728-4.172-5.914a1.936 1.936 0 0 0-.748-.544z" class="ColorScheme-Text" opacity=".3" fill="currentColor"/></svg>
